src/main/resources/pixelj/resources/svg/dark/pxf_exit.svg

<?xml version="1.0" encoding="UTF-8" standalone="no"?>
<!DOCTYPE svg PUBLIC "-//W3C//DTD SVG 1.1//EN" "http://www.w3.org/Graphics/SVG/1.1/DTD/svg11.dtd">
<svg width="100%" height="100%" viewBox="0 0 16 16" version="1.1" xmlns="http://www.w3.org/2000/svg" xmlns:xlink="http://www.w3.org/1999/xlink" xml:space="preserve" xmlns:serif="http://www.serif.com/" style="fill-rule:evenodd;clip-rule:evenodd;stroke-linejoin:round;stroke-miterlimit:2;">
    <g id="dark">
        <g id="green">
        </g>
        <g id="red">
            <path d="M8.51,8l3.49,0l0,2.5l3,-3l-3,-3l0,2.5l-3.5,-0c-0.276,-0 -0.5,0.224 -0.5,0.5c0,0.276 0.224,0.5 0.5,0.5c0.003,0 0.007,0 0.01,-0Z" style="fill:rgb(144,50,61);"/>
        </g>
        <g id="gray">
        </g>
        <g id="yellow">
        </g>
        <g id="icon">
            <path d="M1,2l7.243,0c0.201,0 0.393,0.08 0.535,0.222c0.142,0.142 0.222,0.334 0.222,0.535c0,1.16 0,3.243 0,3.243l-1,0l0,-3l-4,-0c-0,-0 1.621,0.54 2.48,0.827c0.311,0.103 0.52,0.394 0.52,0.721c0,1.805 0,7.452 0,7.452l1,0l0,-3l1,0l0,3.243c0,0.201 -0.08,0.393 -0.222,0.535c-0.142,0.142 -0.334,0.222 -0.535,0.222c-0.566,0 -1.243,0 -1.243,0l0,1.08c0,0.213 -0.102,0.413 -0.275,0.538c-0.173,0.125 -0.395,0.159 -0.598,0.091c-1.664,-0.555 -5.127,-1.709 -5.127,-1.709l0,-11Z" style="fill:rgb(151,159,173);"/>
        </g>
    </g>
    <g id="menu">
    </g>
</svg>

<?xml version="1.0" encoding="UTF-8" standalone="no"?>
<!DOCTYPE svg PUBLIC "-//W3C//DTD SVG 1.1//EN" "http://www.w3.org/Graphics/SVG/1.1/DTD/svg11.dtd">
<svg width="100%" height="100%" viewBox="0 0 16 16" version="1.1" xmlns="http://www.w3.org/2000/svg" xmlns:xlink="http://www.w3.org/1999/xlink" xml:space="preserve" xmlns:serif="http://www.serif.com/" style="fill-rule:evenodd;clip-rule:evenodd;stroke-linejoin:round;stroke-miterlimit:2;">
    <g id="green_dark">
    </g>
    <g id="red_dark">
        <path d="M8.51,8L12,8L12,10.5L15,7.5L12,4.5L12,7L8.5,7C8.224,7 8,7.224 8,7.5C8,7.776 8.224,8 8.5,8C8.503,8 8.507,8 8.51,8Z" style="fill:rgb(179,74,86);"/>
    </g>
    <g id="gray_dark">
    </g>
    <g id="yellow_dark">
    </g>
    <g id="icon_dark">
        <path d="M1,2L9,2L9,6L8,6L8,3L4,3L7,4L7,12L8,12L8,9L9,9L9,13L7,13L7,15L1,13L1,2Z" style="fill:rgb(151,159,173);"/>
    </g>
</svg>
